icons/hoa.svg

<?xml version="1.0" encoding="UTF-8" standalone="no"?>
<svg width="512px" height="184px" viewBox="0 0 512 184" version="1.1" xmlns="http://www.w3.org/2000/svg" xmlns:xlink="http://www.w3.org/1999/xlink" preserveAspectRatio="xMidYMid">
	<g>
		<path d="M44.9447316,36.8 L101.563419,36.8 C106.233002,36.8 110.027038,40.5968254 110.027038,45.2698413 L110.027038,64.8380952 C110.027038,69.5111111 113.821074,73.6 118.490656,73.6 L138.044533,73.6 C142.714115,73.6 146.8,69.5111111 146.8,64.8380952 L146.8,8.46984127 C146.8,3.7968254 142.714115,7.10542736e-15 138.044533,7.10542736e-15 L8.46361829,7.10542736e-15 C3.79403579,7.10542736e-15 0,3.7968254 0,8.46984127 L0,64.8380952 C0,69.5111111 3.79403579,73.6 8.46361829,73.6 L28.017495,73.6 C32.6870775,73.6 36.4811133,69.5111111 36.4811133,64.8380952 L36.4811133,45.2698413 C36.4811133,40.5968254 40.2751491,36.8 44.9447316,36.8 L44.9447316,36.8 Z" fill="#424A52" transform="translate(73.400000, 36.800000) rotate(180.000000) translate(-73.400000, -36.800000) "></path>
		<path d="M44.9447316,146.772962 L101.563419,146.772962 C106.233002,146.772962 110.027038,150.566998 110.027038,155.236581 L110.027038,174.790457 C110.027038,179.46004 113.821074,183.545924 118.490656,183.545924 L138.044533,183.545924 C142.714115,183.545924 146.8,179.46004 146.8,174.790457 L146.8,118.463618 C146.8,113.794036 142.714115,110 138.044533,110 L8.46361829,110 C3.79403579,110 0,113.794036 0,118.463618 L0,174.790457 C0,179.46004 3.79403579,183.545924 8.46361829,183.545924 L28.017495,183.545924 C32.6870775,183.545924 36.4811133,179.46004 36.4811133,174.790457 L36.4811133,155.236581 C36.4811133,150.566998 40.2751491,146.772962 44.9447316,146.772962 L44.9447316,146.772962 Z" fill="#FA8A75"></path>
		<path d="M227.744732,37.1729622 L284.363419,37.1729622 C289.033002,37.1729622 292.827038,40.966998 292.827038,45.6365805 L292.827038,65.1904573 C292.827038,69.8600398 296.621074,73.9459245 301.290656,73.9459245 L320.844533,73.9459245 C325.514115,73.9459245 329.6,69.8600398 329.6,65.1904573 L329.6,8.86361829 C329.6,4.19403579 325.514115,0.4 320.844533,0.4 L191.263618,0.4 C186.594036,0.4 182.8,4.19403579 182.8,8.86361829 L182.8,65.1904573 C182.8,69.8600398 186.594036,73.9459245 191.263618,73.9459245 L210.817495,73.9459245 C215.487078,73.9459245 219.281113,69.8600398 219.281113,65.1904573 L219.281113,45.6365805 C219.281113,40.966998 223.075149,37.1729622 227.744732,37.1729622 L227.744732,37.1729622 Z" fill="#FA8A75"></path>
		<path d="M227.744732,146.772962 L284.363419,146.772962 C289.033002,146.772962 292.827038,150.566998 292.827038,155.236581 L292.827038,174.790457 C292.827038,179.46004 296.621074,183.545924 301.290656,183.545924 L320.844533,183.545924 C325.514115,183.545924 329.6,179.46004 329.6,174.790457 L329.6,118.463618 C329.6,113.794036 325.514115,110 320.844533,110 L191.263618,110 C186.594036,110 182.8,113.794036 182.8,118.463618 L182.8,174.790457 C182.8,179.46004 186.594036,183.545924 191.263618,183.545924 L210.817495,183.545924 C215.487078,183.545924 219.281113,179.46004 219.281113,174.790457 L219.281113,155.236581 C219.281113,150.566998 223.075149,146.772962 227.744732,146.772962 L227.744732,146.772962 Z" fill="#424A52" transform="translate(256.200000, 146.772962) rotate(180.000000) translate(-256.200000, -146.772962) "></path>
		<path d="M410.144732,37.1729622 L466.763419,37.1729622 C471.433002,37.1729622 475.227038,40.966998 475.227038,45.6365805 L475.227038,65.1904573 C475.227038,69.8600398 479.021074,73.9459245 483.690656,73.9459245 L503.244533,73.9459245 C507.914115,73.9459245 512,69.8600398 512,65.1904573 L512,8.86361829 C512,4.19403579 507.914115,0.4 503.244533,0.4 L373.663618,0.4 C368.994036,0.4 365.2,4.19403579 365.2,8.86361829 L365.2,65.1904573 C365.2,69.8600398 368.994036,73.9459245 373.663618,73.9459245 L393.217495,73.9459245 C397.887078,73.9459245 401.681113,69.8600398 401.681113,65.1904573 L401.681113,45.6365805 C401.681113,40.966998 405.475149,37.1729622 410.144732,37.1729622 L410.144732,37.1729622 Z" fill="#424A52"></path>
		<path d="M410.144732,146.772962 L466.763419,146.772962 C471.433002,146.772962 475.227038,150.566998 475.227038,155.236581 L475.227038,174.790457 C475.227038,179.46004 479.021074,183.545924 483.690656,183.545924 L503.244533,183.545924 C507.914115,183.545924 512,179.46004 512,174.790457 L512,118.463618 C512,113.794036 507.914115,110 503.244533,110 L373.663618,110 C368.994036,110 365.2,113.794036 365.2,118.463618 L365.2,174.790457 C365.2,179.46004 368.994036,183.545924 373.663618,183.545924 L393.217495,183.545924 C397.887078,183.545924 401.681113,179.46004 401.681113,174.790457 L401.681113,155.236581 C401.681113,150.566998 405.475149,146.772962 410.144732,146.772962 L410.144732,146.772962 Z" fill="#FA8A75"></path>
	</g>
</svg>

<svg xmlns="http://www.w3.org/2000/svg" viewBox="0 0 512 183.546">
  <path fill="#424a52" d="M101.855 36.8H45.237c-4.67 0-8.464-3.797-8.464-8.47V8.762C36.773 4.089 32.979 0 28.309 0H8.755C4.085 0 0 4.089 0 8.762V65.13c0 4.673 4.086 8.47 8.755 8.47h129.581c4.67 0 8.464-3.797 8.464-8.47V8.762c0-4.673-3.794-8.762-8.464-8.762h-19.553c-4.67 0-8.464 4.089-8.464 8.762V28.33c0 4.673-3.794 8.47-8.464 8.47z"/>
  <path fill="#fa8a75" d="M44.945 146.773h56.618c4.67 0 8.464 3.794 8.464 8.464v19.553c0 4.67 3.794 8.756 8.464 8.756h19.554c4.67 0 8.755-4.086 8.755-8.756v-56.326c0-4.67-4.086-8.464-8.755-8.464H8.464C3.794 110 0 113.794 0 118.464v56.326c0 4.67 3.794 8.756 8.464 8.756h19.553c4.67 0 8.464-4.086 8.464-8.756v-19.553c0-4.67 3.794-8.464 8.464-8.464zM227.745 37.173h56.618c4.67 0 8.464 3.794 8.464 8.464V65.19c0 4.67 3.794 8.756 8.464 8.756h19.554c4.67 0 8.755-4.086 8.755-8.756V8.864c0-4.67-4.086-8.464-8.755-8.464H191.264c-4.67 0-8.464 3.794-8.464 8.464V65.19c0 4.67 3.794 8.756 8.464 8.756h19.553c4.67 0 8.464-4.086 8.464-8.756V45.637c0-4.67 3.794-8.464 8.464-8.464z"/>
  <path fill="#424a52" d="M284.655 146.773h-56.618c-4.67 0-8.464-3.794-8.464-8.464v-19.554c0-4.67-3.794-8.755-8.464-8.755h-19.554c-4.67 0-8.755 4.086-8.755 8.755v56.327c0 4.67 4.086 8.464 8.755 8.464h129.581c4.67 0 8.464-3.794 8.464-8.464v-56.327c0-4.67-3.794-8.755-8.464-8.755h-19.553c-4.67 0-8.464 4.086-8.464 8.755v19.554c0 4.67-3.794 8.464-8.464 8.464zM410.145 37.173h56.618c4.67 0 8.464 3.794 8.464 8.464V65.19c0 4.67 3.794 8.756 8.464 8.756h19.554c4.67 0 8.755-4.086 8.755-8.756V8.864C512 4.194 507.914.4 503.245.4H373.664c-4.67 0-8.464 3.794-8.464 8.464V65.19c0 4.67 3.794 8.756 8.464 8.756h19.553c4.67 0 8.464-4.086 8.464-8.756V45.637c0-4.67 3.794-8.464 8.464-8.464z"/>
  <path fill="#fa8a75" d="M410.145 146.773h56.618c4.67 0 8.464 3.794 8.464 8.464v19.553c0 4.67 3.794 8.756 8.464 8.756h19.554c4.67 0 8.755-4.086 8.755-8.756v-56.326c0-4.67-4.086-8.464-8.755-8.464H373.664c-4.67 0-8.464 3.794-8.464 8.464v56.326c0 4.67 3.794 8.756 8.464 8.756h19.553c4.67 0 8.464-4.086 8.464-8.756v-19.553c0-4.67 3.794-8.464 8.464-8.464z"/>
</svg>
